X: 113
T: Devil in the Strawstack
M: 4/4
L: 1/8
K: Gm
"Gm"GFDF GFDF |GFDF"F"C4 | "Gm"GFDFG2d2 |"D7"dcAc dcAc|
"Gm"GFDF GFDF |GFDF"F"C4 | "Gm"GFDFG2d2 |"D7"dcA2"Gm"G4 :|
|: "Gm"d2g2g4| gagfd4 | "F" fAgAfAgf| dcAc"Dm"d4 |
"Gm"d2g2g4| gagfd4 | "F" fAgAfAgf|"D7" dcA2"Gm"G4 :|
